icons/svg/amenity/prison.svg

<?xml version="1.0" encoding="UTF-8" standalone="no"?>
<!-- Created with Inkscape (http://www.inkscape.org/) -->

<svg
   xmlns:dc="http://purl.org/dc/elements/1.1/"
   xmlns:cc="http://creativecommons.org/ns#"
   xmlns:rdf="http://www.w3.org/1999/02/22-rdf-syntax-ns#"
   xmlns:svg="http://www.w3.org/2000/svg"
   xmlns="http://www.w3.org/2000/svg"
   xmlns:sodipodi="http://sodipodi.sourceforge.net/DTD/sodipodi-0.dtd"
   xmlns:inkscape="http://www.inkscape.org/namespaces/inkscape"
   version="1.0"
   width="580"
   height="580"
   id="svg2"
   sodipodi:version="0.32"
   inkscape:version="0.48.4 r9939"
   sodipodi:docname="prison.svg"
   inkscape:output_extension="org.inkscape.output.svg.inkscape">
  <metadata
     id="metadata10">
    <rdf:RDF>
      <cc:Work
         rdf:about="">
        <dc:format>image/svg+xml</dc:format>
        <dc:type
           rdf:resource="http://purl.org/dc/dcmitype/StillImage" />
        <cc:license
           rdf:resource="http://web.resource.org/cc/PublicDomain" />
        <dc:language>en</dc:language>
      </cc:Work>
    </rdf:RDF>
  </metadata>
  <sodipodi:namedview
     inkscape:window-height="1004"
     inkscape:window-width="1920"
     inkscape:pageshadow="2"
     inkscape:pageopacity="0.0"
     guidetolerance="10.0"
     gridtolerance="10.0"
     objecttolerance="10.0"
     borderopacity="1.0"
     bordercolor="#666666"
     pagecolor="#ffffff"
     id="base"
     showgrid="false"
     inkscape:zoom="0.32018265"
     inkscape:cx="11.143057"
     inkscape:cy="524.08273"
     inkscape:window-x="1680"
     inkscape:window-y="0"
     inkscape:current-layer="svg2"
     inkscape:window-maximized="1" />
  <defs
     id="defs4">
    <inkscape:perspective
       sodipodi:type="inkscape:persp3d"
       inkscape:vp_x="0 : 290 : 1"
       inkscape:vp_y="0 : 1000 : 0"
       inkscape:vp_z="580 : 290 : 1"
       inkscape:persp3d-origin="290 : 193.33333 : 1"
       id="perspective12" />
    <style
       type="text/css"
       id="style6">
   
    .fil0 {fill:#EF7900}
   
  </style>
    <inkscape:perspective
       id="perspective6807"
       inkscape:persp3d-origin="29.116032 : 19.410688 : 1"
       inkscape:vp_z="58.232063 : 29.116032 : 1"
       inkscape:vp_y="0 : 1000 : 0"
       inkscape:vp_x="0 : 29.116032 : 1"
       sodipodi:type="inkscape:persp3d" />
    <inkscape:perspective
       id="perspective6954"
       inkscape:persp3d-origin="290 : 193.33333 : 1"
       inkscape:vp_z="580 : 290 : 1"
       inkscape:vp_y="0 : 1000 : 0"
       inkscape:vp_x="0 : 290 : 1"
       sodipodi:type="inkscape:persp3d" />
    <marker
       viewBox="0 0 10 10"
       refY="5"
       refX="10"
       orient="auto"
       markerWidth="4"
       markerUnits="strokeWidth"
       markerHeight="3"
       id="ArrowStart">
      <path
         id="path2295"
         d="M 10 0 L 0 5 L 10 10 z" />
    </marker>
    <marker
       viewBox="0 0 10 10"
       refY="5"
       refX="0"
       orient="auto"
       markerWidth="4"
       markerUnits="strokeWidth"
       markerHeight="3"
       id="ArrowEnd">
      <path
         id="path2292"
         d="M 0 0 L 10 5 L 0 10 z" />
    </marker>
    <inkscape:perspective
       id="perspective7597"
       inkscape:persp3d-origin="178.5405 : 158.483 : 1"
       inkscape:vp_z="357.08099 : 237.7245 : 1"
       inkscape:vp_y="0 : 1000 : 0"
       inkscape:vp_x="0 : 237.7245 : 1"
       sodipodi:type="inkscape:persp3d" />
  </defs>
  <g
     id="g1327">
    <path
       d="M 66.275,1.768 C 24.94,1.768 1.704,23.139 1.704,66.804 L 1.704,516.927 C 1.704,557.771 22.598,579.156 63.896,579.156 L 515.92,579.156 C 557.227,579.156 578.149,558.84 578.149,516.927 L 578.149,66.804 C 578.149,24.203 557.227,1.768 514.627,1.768 C 514.624,1.768 66.133,1.625 66.275,1.768 z"
       style="fill:#111111;stroke:#eeeeee;stroke-width:3.40799999"
       id="path1329" />
  </g>
  <g
     id="g2319"
     transform="translate(879.29125,36.805119)">
    <path
       id="path2323"
       style="fill:#ffffff;stroke:none"
       d="" />
  </g>
  <g
     id="g2325"
     transform="translate(879.29125,36.805119)">
    <path
       id="path2329"
       style="fill:#ffffff;stroke:none"
       d="" />
  </g>
  <path
     style="font-size:40px;font-style:normal;font-variant:normal;font-weight:normal;font-stretch:normal;text-align:start;line-height:125%;writing-mode:lr-tb;text-anchor:start;fill:#ffffff;fill-opacity:1;stroke:none;font-family:NPSPICT3;-inkscape-font-specification:NPSPICT3;opacity:0.56126482"
     d="M 290.875 70.0625 C 250.88148 70.0625 218.46875 102.47523 218.46875 142.46875 C 218.46875 182.46227 250.88148 214.875 290.875 214.875 C 330.86852 214.875 363.3125 182.46227 363.3125 142.46875 C 363.3125 102.47523 330.86852 70.0625 290.875 70.0625 z M 518.125 211.40625 A 28.752875 28.752875 0 0 0 489.75 231.375 L 456.75 334.40625 L 413.15625 255.46875 A 28.757731 28.757731 0 0 0 385.78125 240.71875 C 384.89292 240.61782 383.95091 240.52419 382.96875 240.46875 C 379.53288 239.62135 364.70194 239.21885 360.53125 239.21875 L 243.96875 239.21875 C 243.96875 239.21875 226.35974 239.66373 214.71875 240.40625 C 208.45527 240.55432 202.89716 241.56274 197.96875 243.28125 A 28.752875 28.752875 0 0 0 175.59375 258.78125 L 130.90625 339.71875 L 92.96875 231 A 28.752875 28.752875 0 0 0 66.84375 211.71875 A 28.752875 28.752875 0 0 0 62.78125 211.875 L 42 214.09375 A 28.752875 28.752875 0 0 0 46.1875 271.4375 L 97.78125 419.4375 A 28.752875 28.752875 0 0 0 150.09375 423.875 L 165.875 395.28125 L 165.75 404.5 C 173.81261 459.1236 160.64438 484.31684 186.78125 541.03125 L 399.21875 541.1875 C 417.87397 506.44999 416.75656 461.68257 416.0625 433.59375 L 415.875 379.375 L 438.625 420.5625 A 28.752875 28.752875 0 0 0 491.1875 415.4375 L 536.46875 274 A 28.752875 28.752875 0 0 0 545.4375 217.375 L 523.8125 212.1875 A 28.752875 28.752875 0 0 0 518.125 211.40625 z "
     id="flowRoot3192" />
  <path
     id="path9497-9"
     d="m 396.75513,536.78495 c 5.30794,-0.82311 13.49398,1.60176 17.11611,-1.12382 0,-164.1487 0,-328.2974 0,-492.446083 -5.30795,0.823112 -13.49399,-1.601756 -17.11611,1.123825 0,164.148688 0,328.297388 0,492.446078 z"
     style="fill:#ffffff;fill-opacity:1;stroke:#ffffff;stroke-width:13.24478531;stroke-linecap:round;stroke-linejoin:round;stroke-miterlimit:4;stroke-opacity:1;stroke-dashoffset:0"
     inkscape:connector-curvature="0" />
  <path
     id="path9497-2"
     d="m 168.41001,536.78495 c 5.30794,-0.82311 13.49398,1.60176 17.11611,-1.12382 0,-164.1487 0,-328.2974 0,-492.446085 -5.30795,0.823112 -13.49399,-1.601756 -17.11611,1.123825 0,164.14869 0,328.29739 0,492.44608 z"
     style="fill:#ffffff;fill-opacity:1;stroke:#ffffff;stroke-width:13.24478531;stroke-linecap:round;stroke-linejoin:round;stroke-miterlimit:4;stroke-opacity:1;stroke-dashoffset:0"
     inkscape:connector-curvature="0" />
  <path
     id="path9497"
     d="m 510.92768,536.78495 c 5.30794,-0.82311 13.49398,1.60176 17.11611,-1.12382 0,-89.71802 0,-167.43605 0,-257.15407 0,-7.41764 -16.83037,-13.56974 -16.39689,-33.47212 0.54467,-25.00724 16.39689,-27.17769 16.39689,-35.37614 0,-58.81459 0,-107.62917 0,-166.443755 -5.30795,0.823112 -13.49399,-1.601756 -17.11611,1.123825 0,164.14869 0,328.29739 0,492.44608 z"
     style="fill:#ffffff;fill-opacity:1;stroke:#ffffff;stroke-width:13.24478531;stroke-linecap:round;stroke-linejoin:round;stroke-miterlimit:4;stroke-opacity:1;stroke-dashoffset:0"
     inkscape:connector-curvature="0"
     sodipodi:nodetypes="ccsssccc" />
  <path
     id="path9499"
     d="m 54.23746,536.78495 c 5.30795,-0.82311 13.49399,1.60176 17.11611,-1.12382 0,-164.1487 0,-328.2974 0,-492.446085 -5.30794,0.823112 -13.49398,-1.601756 -17.11611,1.123825 0,57.45713 0,104.91427 0,162.37141 0,8.28168 17.151604,3.81612 16.563361,34.29293 -0.588243,30.4768 -16.563361,30.01125 -16.563361,37.74082 0,90.68031 0,167.36061 0,258.04092 z"
     style="fill:#ffffff;fill-opacity:1;stroke:#ffffff;stroke-width:13.24478531;stroke-linecap:round;stroke-linejoin:round;stroke-miterlimit:4;stroke-opacity:1;stroke-dashoffset:0"
     inkscape:connector-curvature="0"
     sodipodi:nodetypes="ccccszsc" />
  <path
     id="path9497-2-3"
     d="m 282.58256,536.78495 c 5.30794,-0.82311 13.49398,1.60176 17.11611,-1.12382 0,-164.1487 0,-328.2974 0,-492.446083 -5.30795,0.823112 -13.49399,-1.601756 -17.11611,1.123825 0,164.148688 0,328.297388 0,492.446078 z"
     style="fill:#ffffff;fill-opacity:1;stroke:#ffffff;stroke-width:13.24478531;stroke-linecap:round;stroke-linejoin:round;stroke-miterlimit:4;stroke-opacity:1;stroke-dashoffset:0"
     inkscape:connector-curvature="0" />
</svg>

<svg width="580" height="580" viewBox="0 0 580 580" fill="none" xmlns="http://www.w3.org/2000/svg">
<g clip-path="url(#clip0)">
<path d="M66.2751 1.7679C24.9401 1.7679 1.7041 23.1389 1.7041 66.8039V516.927C1.7041 557.771 22.5981 579.156 63.8961 579.156H515.92C557.227 579.156 578.149 558.84 578.149 516.927V66.8039C578.149 24.2029 557.227 1.7679 514.627 1.7679C514.624 1.7679 66.1331 1.6249 66.2751 1.7679Z" fill="#111111" stroke="#EEEEEE" stroke-width="3.408"/>
<path opacity="0.561265" d="M290.875 70.0625C250.881 70.0625 218.469 102.475 218.469 142.469C218.469 182.462 250.881 214.875 290.875 214.875C330.868 214.875 363.312 182.462 363.312 142.469C363.312 102.475 330.868 70.0625 290.875 70.0625ZM518.125 211.406C511.866 211.19 505.708 213.024 500.586 216.628C495.464 220.233 491.66 225.41 489.75 231.375L456.75 334.406L413.156 255.469C410.487 250.645 406.488 246.69 401.634 244.075C396.781 241.46 391.278 240.295 385.781 240.719C384.893 240.618 383.951 240.524 382.969 240.469C379.533 239.621 364.702 239.219 360.531 239.219H243.969C243.969 239.219 226.36 239.664 214.719 240.406C208.455 240.554 202.897 241.563 197.969 243.281C193.249 243.816 188.735 245.511 184.831 248.216C180.926 250.921 177.753 254.551 175.594 258.781L130.906 339.719L92.9687 231C91.0638 225.528 87.5501 220.759 82.8883 217.319C78.2265 213.878 72.634 211.926 66.8437 211.719C65.4875 211.675 64.13 211.727 62.7812 211.875L41.9999 214.094C34.4949 214.778 27.5584 218.381 22.6833 224.128C17.8082 229.875 15.3842 237.306 15.9331 244.822C16.482 252.338 19.9598 259.338 25.618 264.316C31.2763 269.294 38.6626 271.851 46.1874 271.438L97.7812 419.438C99.61 424.679 102.917 429.279 107.303 432.683C111.69 436.086 116.967 438.146 122.499 438.616C128.031 439.085 133.58 437.943 138.477 435.327C143.373 432.711 147.408 428.734 150.094 423.875L165.875 395.281L165.75 404.5C173.813 459.124 160.644 484.317 186.781 541.031L399.219 541.188C417.874 506.45 416.756 461.683 416.062 433.594L415.875 379.375L438.625 420.562C441.338 425.481 445.433 429.498 450.403 432.116C455.373 434.733 461.001 435.838 466.592 435.293C472.183 434.748 477.492 432.577 481.863 429.048C486.234 425.52 489.476 420.788 491.187 415.438L536.469 274C543.684 274.572 550.849 272.401 556.535 267.922C562.22 263.443 566.007 256.984 567.139 249.835C568.271 242.686 566.666 235.373 562.643 229.356C558.62 223.339 552.476 219.061 545.437 217.375L523.812 212.188C521.947 211.738 520.042 211.476 518.125 211.406V211.406Z" fill="white"/>
<path d="M396.755 536.785C402.063 535.962 410.249 538.387 413.871 535.661C413.871 371.512 413.871 207.364 413.871 43.2149C408.563 44.038 400.377 41.6132 396.755 44.3388C396.755 208.487 396.755 372.636 396.755 536.785Z" fill="white" stroke="white" stroke-width="13.2448" stroke-linecap="round" stroke-linejoin="round"/>
<path d="M168.41 536.785C173.718 535.962 181.904 538.387 185.526 535.661C185.526 371.512 185.526 207.364 185.526 43.2149C180.218 44.038 172.032 41.6132 168.41 44.3388C168.41 208.487 168.41 372.636 168.41 536.785Z" fill="white" stroke="white" stroke-width="13.2448" stroke-linecap="round" stroke-linejoin="round"/>
<path d="M510.928 536.785C516.236 535.962 524.422 538.387 528.044 535.661C528.044 445.943 528.044 368.225 528.044 278.507C528.044 271.089 511.213 264.937 511.647 245.035C512.192 220.028 528.044 217.857 528.044 209.659C528.044 150.844 528.044 102.03 528.044 43.2149C522.736 44.038 514.55 41.6132 510.928 44.3388C510.928 208.487 510.928 372.636 510.928 536.785V536.785Z" fill="white" stroke="white" stroke-width="13.2448" stroke-linecap="round" stroke-linejoin="round"/>
<path d="M54.2375 536.785C59.5455 535.962 67.7315 538.387 71.3537 535.661C71.3537 371.512 71.3537 207.364 71.3537 43.2149C66.0457 44.038 57.8597 41.6132 54.2375 44.3388C54.2375 101.796 54.2375 149.253 54.2375 206.71C54.2375 214.992 71.3892 210.526 70.8009 241.003C70.2127 271.48 54.2375 271.014 54.2375 278.744C54.2375 369.424 54.2375 446.105 54.2375 536.785V536.785Z" fill="white" stroke="white" stroke-width="13.2448" stroke-linecap="round" stroke-linejoin="round"/>
<path d="M282.583 536.785C287.89 535.962 296.077 538.387 299.699 535.661C299.699 371.512 299.699 207.364 299.699 43.2149C294.391 44.038 286.205 41.6132 282.583 44.3388C282.583 208.487 282.583 372.636 282.583 536.785Z" fill="white" stroke="white" stroke-width="13.2448" stroke-linecap="round" stroke-linejoin="round"/>
</g>
<defs>
<clipPath id="clip0">
<path d="M0 0H580V580H0V0Z" fill="white"/>
</clipPath>
</defs>
</svg>
